static/fa/svgs/solid/stamp.svg

<svg xmlns="http://www.w3.org/2000/svg" viewBox="0 0 512 512"><!--! Font Awesome Free 6.1.1 by @fontawesome - https://fontawesome.com License - https://fontawesome.com/license/free (Icons: CC BY 4.0, Fonts: SIL OFL 1.1, Code: MIT License) Copyright 2022 Fonticons, Inc.--><path d="M366.2 256H400c61.9 0 112 50.1 112 112 0 20.9-13.4 38.7-32 45.3V464c0 26.5-21.5 48-48 48H80c-26.51 0-48-21.5-48-48v-50.7C13.36 406.7 0 388.9 0 368c0-61.9 50.14-112 112-112h33.8c29.9 0 54.2-24.3 54.2-54.2 0-17.5-9.2-33.3-19.9-47C167.5 138.5 160 118.1 160 96c0-53.02 42.1-96 96-96 53 0 96 42.98 96 96 0 22.1-7.5 42.5-20.1 58.8-10.7 13.7-19.9 29.5-19.9 47 0 29.9 24.3 54.2 54.2 54.2zM416 416H96v32h320v-32z"/></svg>

<svg xmlns="http://www.w3.org/2000/svg" viewBox="0 0 512 512"><!--! Font Awesome Free 6.1.1 by @fontawesome - https://fontawesome.com License - https://fontawesome.com/license/free (Icons: CC BY 4.0, Fonts: SIL OFL 1.1, Code: MIT License) Copyright 2022 Fonticons, Inc. --><path d="M366.2 256H400C461.9 256 512 306.1 512 368C512 388.9 498.6 406.7 480 413.3V464C480 490.5 458.5 512 432 512H80C53.49 512 32 490.5 32 464V413.3C13.36 406.7 0 388.9 0 368C0 306.1 50.14 256 112 256H145.8C175.7 256 200 231.7 200 201.8C200 184.3 190.8 168.5 180.1 154.8C167.5 138.5 160 118.1 160 96C160 42.98 202.1 0 256 0C309 0 352 42.98 352 96C352 118.1 344.5 138.5 331.9 154.8C321.2 168.5 312 184.3 312 201.8C312 231.7 336.3 256 366.2 256zM416 416H96V448H416V416z"/></svg>
